img/svg/add_compare.svg

<svg width="17" height="18" fill="none" xmlns="http://www.w3.org/2000/svg"><path fill-rule="evenodd" clip-rule="evenodd" d="M14 0h3v18h-3V0zM7 10h3v8H7v-8zM3 5H0v13h3V5z" fill="#A5FF14"/></svg>

<svg width="17" height="18" viewBox="0 0 17 18" fill="none" xmlns="http://www.w3.org/2000/svg">
<path fill-rule="evenodd" clip-rule="evenodd" d="M14 0H17V18H14V0ZM7 10H10V18H7V10ZM3 5H0V18H3V5Z" fill="#A5FF14"/>
</svg>
